!!!COM:	la Rue, Pierre de
!!!CDT:	~1452///-1518/11/20
!!!OPR:	Missa Sancta Dei genitrix
!!!ONM:	3
!!!OTL:	Credo
!!!AGN:	Mass; Credo
!!!SCT:	Rue1026c
!!!SCA:	Rue1026c
!!!voices:	4
!!!voices-OPR:	4
**kern	**kern	**kern	**kern
*staff4	*staff3	*staff2	*staff1
*Ivox	*Ivox	*Ivox	*Ivox
*I"Bassus	*I"Tenor	*I"Contra	*I"Discantus
*I'B	*I'T	*I'C	*I'D
*>[A,B,C]	*>[A,B,C]	*>[A,B,C]	*>[A,B,C]
*>A	*>A	*>A	*>A
*clefF4	*clefGv2	*clefGv2	*clefG2
*k[]	*k[]	*k[]	*k[]
*M3/1	*M3/1	*M3/1	*M3/1
*met(O)	*met(O)	*met(O)	*met(O)
!!section: Patrem omnipotentem
!!!OMD: Patrem omnipotentem
=1-	=1-	=1-	=1-
1r	1B	0.r	0.r
1r	2c\	.	.
.	1B	.	.
1E	.	.	.
.	2G/	.	.
=2	=2	=2	=2
2F\	2A/	1r	0.r
1E	2B\	.	.
.	1E	1e	.
2C/	.	.	.
2D\	1r	2f\	.
2E\	.	[2e\	.
=3	=3	=3	=3
1AA	1A	2e\]	0.r
.	.	2c\	.
1r	2B-i\	2d\	.
.	1A	2e\	.
1r	.	2A/	.
.	2F/	[2d\	.
=4	=4	=4	=4
1r	2G/	2d\]	1r
.	2A/	2c#i\	.
1GG	1D	2d\	1b
.	.	2g\	.
1AA	1r	2f\	1cc
.	.	[2e\	.
=5	=5	=5	=5
1.E	0.r	2e\]	1b
.	.	4d\	.
.	.	4c\	.
.	.	2B\	2g/
2F\	.	2A/	2a/
1E	.	[1e	2b\
.	.	.	[2cc\
=6	=6	=6	=6
2C/	1r	2e\]	4cc\]
.	.	.	4b\
2D\	.	2c\	1a
1E	2r	1B	.
.	1E	.	2g#i/
2.AA/	.	1A	1a
.	2F/	.	.
4BB/	.	.	.
=7	=7	=7	=7
2C/	2E/	2r	0.r
2D\	2F/	1B	.
2E\	2G/	.	.
2AA/	2A/	2c\	.
1BB	1D	2d\	.
.	.	2d\	.
=8	=8	=8	=8
1AA	0.r	1e	2r
.	.	.	2e/
2r	.	2d\	2f/
2.E\	.	2c\	1g
.	.	1B	.
4F\	.	.	.
4G\	.	.	2g/
4E\	.	.	.
=9	=9	=9	=9
2F\	0.r	2A/	1a
2D\	.	2f\	.
2E\	.	2e\	2g/
2F\	.	1d	2f/
2G\	.	.	1e
2A\	.	2c#i\	.
=10	=10	=10	=10
1B-i	0.r	1d	1d
1A	.	1e	1r
1F	.	1f	1a
=11	=11	=11	=11
1G	1r	2d\	1b-
.	.	1e	.
1A	1r	.	1a
.	.	2.f\	.
1D	1A	.	1f
.	.	4e\	.
.	.	[2d\	.
=12	=12	=12	=12
2r	2B-i\	2d\]	2g/
1D	2A/	4c\	2.a/
.	.	4B\	.
.	2F/	2A/	.
.	.	.	4g/
2BB/	2G/	2d\	1g
1AA	1A	2c\	.
.	.	4B\	2f#i/
.	.	4A/	.
=13	=13	=13	=13
1GG	1D	1B	1g
1r	1r	2r	2e/
.	.	2A/	2f/
1r	1r	2B\	1g
.	.	[2c\	.
=14	=14	=14	=14
0.r	0.r	2c\]	1a
.	.	2d\	.
.	.	2B\	2.g/
.	.	2.c\	.
.	.	.	4f/
.	.	.	1e
.	.	4B\	.
.	.	[2A/	.
=15	=15	=15	=15
0.r	0.r	2A/]	1f
.	.	4G/	.
.	.	4F/	.
.	.	2G/	2e/
.	.	2A/	2f/
.	.	2B\	1g
.	.	[2c\	.
=16	=16	=16	=16
0.r	0.r	4c\]	1a
.	.	4A/	.
.	.	1d	.
.	.	.	1r
.	.	4c\	.
.	.	4B\	.
.	.	2c\	1a
.	.	2d\	.
=17	=17	=17	=17
0.r	0.r	2G/	1b-i
.	.	2.d\	.
.	.	.	2a/
.	.	4c\	.
.	.	4d\	2a/
.	.	4c\	.
.	.	2A/	2a/
.	.	[2c\	2g/
=18	=18	=18	=18
0.r	0.r	4c\]	2.cc\
.	.	4B\	.
.	.	4A/	.
.	.	4G/	4b\
.	.	2c\	4a/
.	.	.	4g/
.	.	2B\	1g
.	.	1A	.
.	.	.	2f#i/
=19	=19	=19	=19
2.E\	[0.B	2G/	1g
.	.	2.E/	.
4F\	.	.	.
1G	.	.	2.e/
.	.	4F/	.
.	.	1G	.
.	.	.	4f/
1E	.	.	1g
.	.	[2E/	.
=20	=20	=20	=20
1G	1B]	2E/]	1e
.	.	2.G/	.
2.C/	0c	.	1g
.	.	4F/	.
.	.	4E/	.
4BB/	.	4D/	.
1AA	.	2C/	1a
.	.	2C/	.
=21	=21	=21	=21
2GG/	0.B	1G	1d
1G	.	.	.
.	.	2.E/	1g
2.E\	.	.	.
.	.	4F/	.
.	.	1G	2.e/
4F\	.	.	.
2G\	.	.	.
.	.	.	4f/
=22	=22	=22	=22
0C	1G	2r	1g
.	.	2.c\	.
.	0A	.	2e/
.	.	4B\	.
.	.	4A/	2e/
.	.	4G/	.
1D	.	1F	1d
=23	=23	=23	=23
1GG	0.B	2G/	2r
.	.	2G/	2dd\
2GG/	.	2G/	2dd\
2GG/	.	2G/	2dd\
2GG/	.	2D/	2dd\
2GG/	.	2D/	2dd\
=24	=24	=24	=24
1AA	0.E	1A	2cc\
.	.	.	2cc\
2GG/	.	1r	2b\
2.AA/	.	.	2cc\
.	.	2r	2.a/
4BB/	.	.	.
[2C/	.	[2E/	.
.	.	.	4g/
=25	=25	=25	=25
2C/]	0A	2E/]	1e
4BB/	.	4D/	.
4AA/	.	4C/	.
2C/	.	2E/	2r
2D\	.	2F/	2.d/
1GG	1B-	1G	.
.	.	.	4c/
.	.	.	4d/
.	.	.	4e/
=26	=26	=26	=26
1D	1A	2F/	4f/
.	.	.	4g/
.	.	2.f\	1a
2D\	0F	.	.
.	.	4e\	.
2D\	.	1d	4b\
.	.	.	4a/
1D	.	.	2b\
.	.	[2c\	[2a/
=27	=27	=27	=27
1D	0.G	2c\]	2a/]
.	.	2B\	4g/
.	.	.	4f/
0C	.	1c	1e
.	.	1C	2r
.	.	.	2e/
=28	=28	=28	=28
1BB	0.A	1D	2d/
.	.	.	2.dd\
0AA	.	1E	.
.	.	.	4cc\
.	.	.	1cc
.	.	1F	.
.	.	.	4b\
.	.	.	4a/
=29	=29	=29	=29
0GG	1D	1G	0b
.	1r	2r	.
.	.	2B\	.
1r	1r	2c\	2e/
.	.	2d\	2f/
=30	=30	=30	=30
0.r	0.r	2e\	2g/
.	.	2d\	2a/
.	.	2B\	2g/
.	.	2c\	2e/
.	.	2A/	2f/
.	.	2B\	2d/
=31	=31	=31	=31
0.r	0.r	2c\	2e/
.	.	2d\	2f/
.	.	2B\	2g/
.	.	2.c\	2e/
.	.	.	2.g/
.	.	4d\	.
.	.	4e\	.
.	.	4f\	4a/
=32	=32	=32	=32
1r	0.r	2d\	2b\
.	.	2.e\	2.cc\
1r	.	.	.
.	.	4d\	4b\
.	.	2c\	1a
1E	.	2B\	.
.	.	[2c\	2g#i/
=33	=33	=33	=33
1F	1r	4c\]	1a
.	.	4A/	.
.	.	2.d\	.
1E	1e	.	1r
.	.	4c\	.
.	.	1c	.
1D	1f	.	1r
.	.	2B\	.
=34	=34	=34	=34
1C	1e	2.c\	2r
.	.	.	1g
.	.	4B\	.
1E	1c	1G	.
.	.	.	4f/
.	.	.	4e/
2D\	2d\	[1A	2f/
2C/	2e\	.	[2g/
=35	=35	=35	=35
1D	1d	1A]	2g/]
.	.	.	2f#i/
1.E	1r	1G	1.g
.	[1B	1r	.
2F\	.	.	4fni/
.	.	.	4e/
=36	=36	=36	=36
1G	1B]	2r	1d
.	.	2g\	.
2A\	2c\	2f\	1r
1G	1B	1e	.
.	.	.	1r
4F\	2G/	4d\	.
4E\	.	4c\	.
=37	=37	=37	=37
2F\	2A/	1d	2r
2G\	2B\	.	1g
1C	1E	2c\	.
.	.	2g\	4f/
.	.	.	4e/
2D\	1r	2f\	2f/
2E\	.	[2e\	2g/
=38	=38	=38	=38
1AA	1e	2e\]	2c/
.	.	4d\	2cc\
.	.	4c\	.
2D\	2f\	2d\	4b\
.	.	.	4a/
2C/	2.e\	2e\	1cc
1F	.	2.A/	.
.	4c\	.	.
.	2d\	.	4b\
.	.	4B\	4a/
=39	=39	=39	=39
2E\	1e	4c\	2g/
.	.	4B\	.
2E\	.	1e	1cc
1F	2.A/	.	.
.	.	2d\	4b\
.	4B\	.	4a/
1E	2c\	1e	[1g
.	[2B\	.	.
=40	=40	=40	=40
2r	2B\]	2d\	1g]
2E\	2G/	2e\	.
2F\	2A/	2c\	1r
1E	2B\	2.g\	.
.	2E/	.	2.g/
.	.	4f\	.
2C/	2e\	2e\	.
.	.	.	4a/
=41	=41	=41	=41
2D\	2f\	2d\	4b\
.	.	.	4a/
2E\	2e\	2c\	2.cc\
1F	2c\	1A	.
.	.	.	4b\
.	2d\	.	1a
1E	1e	2B\	.
.	.	[2c\	2g#i/
=42	=42	=42	=42
2.F\	[0.Al	4c\]	[0.al
.	.	4A/	.
.	.	1f	.
4E\	.	.	.
2D\	.	.	.
2C/	.	2e\	.
1D	.	1d	.
=43	=43	=43	=43
0.AAl	0.A]	0.cl	0.a]
!!LO:LB:i:g=z
=44||	=44||	=44||	=44||
*>B	*>B	*>B	*>B
*clefF4	*clefGv2	*clefGv2	*clefG2
*k[]	*k[]	*k[]	*k[]
*M2/1	*M2/1	*M2/1	*M2/1
*met(C|)	*met(C|)	*met(C|)	*met(C|)
!!section: Et incarnatus est
!!!OMD: Et incarnatus est
0r	0r	0r	1.e
.	.	.	2f/
=45	=45	=45	=45
0r	0r	1r	1g
.	.	[1A	1a
=46	=46	=46	=46
0r	0r	2A/]	1f
.	.	2B\	.
.	.	1c	4e/
.	.	.	4f/
.	.	.	4g/
.	.	.	4a/
=47	=47	=47	=47
1.D	0r	1d	2b\
.	.	.	1a
.	.	1B	.
2E\	.	.	2g#i/
=48	=48	=48	=48
1F	0r	4A/	1a
.	.	4B\	.
.	.	4c\	.
.	.	4d\	.
1G	.	2e\	1r
.	.	[2d\	.
=49	=49	=49	=49
1E	0r	2d\]	1g
.	.	2c#i\	.
4D\	.	1d	1f
4E\	.	.	.
4F\	.	.	.
4G\	.	.	.
=50	=50	=50	=50
2A\	0r	1r	2.e/
1G	.	.	.
.	.	.	4f/
.	.	1c	2g/
2F#i\	.	.	2a/
=51	=51	=51	=51
1G	0r	1B	2.d/
.	.	.	4e/
1r	.	2.A/	2f/
.	.	.	2e/
.	.	4B\	.
=52	=52	=52	=52
1F	0r	2c\	2.a/
.	.	2d\	.
.	.	.	4b\
1E	.	4G/	2cc\
.	.	4A/	.
.	.	4B\	[2b\
.	.	4c\	.
=53	=53	=53	=53
2.D\	0r	4d\	4b\]
.	.	4e\	4a/
.	.	1f	1a
4E\	.	.	.
2F\	.	.	.
2G\	.	4e\	[2g/
.	.	4d\	.
=54	=54	=54	=54
1C	0r	1e	2g/]
.	.	.	2a/
2D\	.	2d\	2b\
2C/	.	[2e\	[2cc\
=55	=55	=55	=55
1F	0r	4e\]	2cc\]
.	.	4d\	.
.	.	1d	4b\
.	.	.	4a/
1E	.	.	1g
.	.	2c#i\	.
=56	=56	=56	=56
1.D	0r	2d\	2.f/
.	.	1f	.
.	.	.	4g/
.	.	.	4a/
.	.	.	4b\
2C/	.	2e\	2cc\
=57	=57	=57	=57
1D	0r	2d\	2b\
.	.	2c\	1a
1E	.	1B	.
.	.	.	2g#i/
=58	=58	=58	=58
2F\	0r	2.A/	2a/
1A	.	.	1cc
.	.	4B\	.
.	.	2c\	.
2G\	.	[2d\	2b\
=59	=59	=59	=59
2F\	0r	4d\]	2a/
.	.	4c\	.
2E\	.	1c	2g/
1D	.	.	1f
.	.	2B\	.
=60	=60	=60	=60
1A	0r	2.c\	1e
.	.	4B\	.
2B-i\	.	2G/	1r
[2A\	.	2A/	.
=61	=61	=61	=61
2A\]	0r	1D	1a
2F\	.	.	.
2G\	.	1r	2b-i\
2A\	.	.	[2a/
=62	=62	=62	=62
1D	0r	1d	2a/]
.	.	.	2f/
1r	.	2e\	2g/
.	.	[2d\	2a/
=63	=63	=63	=63
1G	0r	2d\]	1d
.	.	2B\	.
2A\	.	2c\	1r
[2G\	.	2d\	.
=64	=64	=64	=64
2G\]	0r	2G/	1g
2E\	.	1c	.
2F\	.	.	2a/
2G\	.	2B\	[2g/
=65	=65	=65	=65
1C	0r	1c	2g/]
.	.	.	2e/
2r	.	2d\	2f/
2G\	.	[2e\	2g/
=66	=66	=66	=66
1A	0r	2e\]	1c
.	.	4d\	.
.	.	4c\	.
1G	.	2B\	1r
.	.	2d\	.
=67	=67	=67	=67
1E	0r	1e	1g
2F\	.	1d	1a
2D\	.	.	.
=68	=68	=68	=68
2.E\	0r	2B\	1g
.	.	2c\	.
4F\	.	.	.
2G\	.	2B\	1e
[2A\	.	[2c\	.
=69	=69	=69	=69
2A\]	0r	2c\]	2f/
4G\	.	2A/	2d/
4F\	.	.	.
2E\	.	2B\	2.e/
2AA/	.	2c\	.
.	.	.	4f/
=70	=70	=70	=70
2BB/	0r	2d\	2g/
2C/	.	2e\	2.a/
2D\	.	2f\	.
.	.	.	4b\
2E\	.	2e\	[2cc\
=71	=71	=71	=71
1F	0r	4A/	4cc\]
.	.	4B\	4b\
.	.	4c\	1a
.	.	4A/	.
1E	.	1B	.
.	.	.	2g#i/
=72	=72	=72	=72
2AA/	0r	1A	1a
2D\	.	.	.
2D\	.	2r	1a
2D\	.	2A/	.
=73	=73	=73	=73
2C/	0r	2A/	1r
2D\	.	2A/	.
2BB/	.	2G/	2r
[2AA/	.	2A/	2a/
=74	=74	=74	=74
4AA/]	0r	2F/	2a/
4BB/	.	.	.
4C/	.	2E/	2a/
4AA/	.	.	.
2BB/	.	2r	2g/
2AA/	.	2E/	2a/
=75	=75	=75	=75
2.A\	0r	4F/	2f/
.	.	4G/	.
.	.	4A/	2e/
4G\	.	4B\	.
2F\	.	2c\	2.a/
2D\	.	[2d\	.
.	.	.	4a/
=76	=76	=76	=76
2E\	0r	2d\]	2g/
2E\	.	2c#i\	2e/
1D	.	2.d\	2f/
.	.	.	2f/
.	.	4cni\	.
=77	=77	=77	=77
1A	0r	2c\	1e
.	.	2A/	.
2G\	.	2B\	2g/
2E\	.	2B\	2g/
=78	=78	=78	=78
1F	0r	1A	1a
1E	.	1r	1g
=79	=79	=79	=79
2G\	0r	0r	0e
2G\	.	.	.
1A	.	.	.
=80	=80	=80	=80
1G	0r	2d\	2r
.	.	2d\	1g
1E	.	1e	.
.	.	.	2g/
=81	=81	=81	=81
2F\	0r	1d	1a
2D\	.	.	.
2.E\	.	1B	1g
4F\	.	.	.
=82	=82	=82	=82
2G\	0r	0r	1e
2A\	.	.	.
1D	.	.	2f/
.	.	.	2d/
=83	=83	=83	=83
1r	0r	2c\	1e
.	.	2A/	.
1E	.	1B	1g
=84	=84	=84	=84
1F	0r	1d	1a
1E	.	1e	1r
=85	=85	=85	=85
1C	0r	1e	0r
1D	.	1f	.
=86	=86	=86	=86
1E	0r	1e	1b
2AA/	.	1c	1cc
2A\	.	.	.
=87	=87	=87	=87
2.G\	0r	1d	1b
4F\	.	.	.
4E\	.	1e	1g
4D\	.	.	.
2C/	.	.	.
=88	=88	=88	=88
1F	0r	2A/	1a
.	.	1d	.
1G	.	.	1b
.	.	4c\	.
.	.	4B\	.
=89	=89	=89	=89
1A	0r	2c\	2e/
.	.	1e	1a
1F	.	.	.
.	.	2d\	4g/
.	.	.	4f/
=90	=90	=90	=90
*M3/1	*M3/1	*M3/1	*M3/1
*met(3)	*met(3)	*met(3)	*met(3)
0.E	0.r	0e	1.g
.	.	.	2f/
.	.	1r	1e
=91	=91	=91	=91
1r	0.r	0B	1d
0E	.	.	0g
.	.	1c	.
=92	=92	=92	=92
1F	0.r	0d	1f
0G	.	.	1d
.	.	1B	[1e
=93	=93	=93	=93
1E	0.r	1c	1e]
1F	.	0d	1a
[1G	.	.	[1g
=94	=94	=94	=94
1G]	0.r	0e	2g/]
.	.	.	2f/
0A	.	.	2e/
.	.	.	2d/
.	.	1r	1c
=95	=95	=95	=95
1G	0.r	1e	1g
1F	.	1f	1a
1G	.	1e	1b
=96	=96	=96	=96
1A	0.r	1c	2cc\
.	.	.	1a
1F	.	1d	.
.	.	.	4g/
.	.	.	4f/
1E	.	1e	1g
=97	=97	=97	=97
1.F	0.r	1c	1a
.	.	2d\	0f
2E\	.	2c\	.
1D	.	2B\	.
.	.	2A/	.
=98	=98	=98	=98
1C	0.r	0A	1e
0BB	.	.	0d
.	.	1G#i	.
=99	=99	=99	=99
*M2/1	*M2/1	*M2/1	*M2/1
*met(C|)	*met(C|)	*met(C|)	*met(C|)
0AA	0r	1A	2c/
.	.	.	1cc
.	.	2r	.
.	.	2A/	4b\
.	.	.	4a/
=100	=100	=100	=100
1r	0r	1c	2g/
.	.	.	2a/
2r	.	1B	1d
2D\	.	.	.
=101	=101	=101	=101
1F	0r	2A/	0r
.	.	2d\	.
1E	.	2c\	.
.	.	[2B\	.
=102	=102	=102	=102
2D\	0r	4B\]	1r
.	.	4A/	.
2C/	.	1A	.
2BB/	.	.	2r
2BB/	.	2G#i/	2d/
=103	=103	=103	=103
1AA	0r	0A	1f
2r	.	.	1e
2AA/	.	.	.
=104	=104	=104	=104
2BB/	0r	2r	2d/
2GG/	.	2B\	2dd\
2AA/	.	2c\	2cc\
2D\	.	2d\	2b\
=105	=105	=105	=105
2E\	0r	2G/	2b\
2C/	.	2A/	1a
2D\	.	2B\	.
2E\	.	2B\	2g#i/
=106	=106	=106	=106
2F\	0r	2.A/	1a
2D\	.	.	.
.	.	4B\	.
2E\	.	2c\	1r
2F\	.	[2d\	.
=107	=107	=107	=107
2.G\	0r	4d\]	0r
.	.	4c\	.
.	.	2d\	.
4F\	.	.	.
2G\	.	2B\	.
2E\	.	2c\	.
=108	=108	=108	=108
2F\	0r	2A/	0r
2D\	.	2.B\	.
2.E\	.	.	.
.	.	4A/	.
.	.	4G/	.
4D\	.	4F/	.
=109	=109	=109	=109
4C/	0r	2E/	1r
4BB/	.	.	.
2AA/	.	2.c\	.
2C/	.	.	2r
.	.	4B\	.
2D\	.	[2A/	2dd\
=110	=110	=110	=110
1BB	0r	2A/]	2dd\
.	.	2G#i/	2dd\
2AA/	.	1A	1cc
2A\	.	.	.
=111	=111	=111	=111
2G\	0r	2r	2b\
1F	.	2d\	1a
.	.	2d\	.
4E\	.	2d\	4g/
4D\	.	.	4f/
=112	=112	=112	=112
1A	0r	1c	2e/
.	.	.	2a/
2r	.	2B\	2.d/
2D\	.	[2A/	.
.	.	.	4e/
=113	=113	=113	=113
2D\	0r	2A/]	4f/
.	.	.	4g/
2D\	.	4G/	2.a/
.	.	4F/	.
2C/	.	2E/	.
.	.	.	4g/
2AA/	.	2e\	2cc\
=114	=114	=114	=114
2BB/	0r	2d\	2b\
2C/	.	2c\	1a
2D\	.	1B	.
2E\	.	.	2g#i/
=115	=115	=115	=115
2F\	0r	2A/	2a/
2G\	.	1e	2b\
2A\	.	.	2cc\
2B\	.	2d\	2dd\
=116	=116	=116	=116
1c	0r	0e	2g/
.	.	.	2a/
2G\	.	.	2b\
[2A\	.	.	[2cc\
=117	=117	=117	=117
4A\]	0r	1c	4cc\]
4G\	.	.	4b\
4F\	.	.	1a
4E\	.	.	.
1F	.	1d	.
.	.	.	4g/
.	.	.	4f/
=118	=118	=118	=118
0El	0r	0el	0gl
!!LO:LB:i:g=z
=119||	=119||	=119||	=119||
*>C	*>C	*>C	*>C
*clefF4	*clefGv2	*clefGv2	*clefG2
*k[]	*k[]	*k[]	*k[]
*M3/1	*M3/1	*M3/1	*M3/1
*met(O|)	*met(O|)	*met(O|)	*met(O|)
!!section: Et in Spiritum Sanctum
!!!OMD: Et in Spiritum Sanctum
1r	0.r	0B	0.r
0E	.	.	.
.	.	1c	.
=120	=120	=120	=120
1F	0.r	2d\	1r
.	.	2d\	.
2G\	.	2d\	1r
2G\	.	2d\	.
1C	.	1e	1e
=121	=121	=121	=121
1D	0.r	1d	1f
1E	.	1c	2g/
.	.	.	2g/
2E\	.	1B	2g/
2E\	.	.	2g/
=122	=122	=122	=122
2F\	1r	2.A/	1a
2D\	.	.	.
.	.	4B\	.
2E\	2r	2c\	2g/
2F\	2A/	1d	2f/
2G\	2B-i\	.	1e
2A\	[2A/	2c#i\	.
=123	=123	=123	=123
1D	2A/]	1d	1d
.	2F/	.	.
1r	2G/	1e	2r
.	2A/	.	2.a/
1A	2D/	1f	.
.	.	.	4b\
.	2r	.	[2cc\
=124	=124	=124	=124
1A	0.r	2e\	2cc\]
.	.	2c\	4b\
.	.	.	4a/
1G	.	2d\	1b
.	.	2e\	.
[1F	.	[1A	[1a
=125	=125	=125	=125
2F\]	0d	1A]	2a/]
2D\	.	.	2f/
2F\	.	2r	2a/
1G	.	2B\	2.g/
.	2e\	2G/	.
.	.	.	4e/
2D\	[2d\	2A/	[2f/
=126	=126	=126	=126
1G	2d\]	2B\	4f/]
.	.	.	4e/
.	2B\	2G/	1e
1F	2c\	1A	.
.	2d\	.	2d/
1E	2G/	1B	[1e
.	2B\	.	.
=127	=127	=127	=127
2r	2c\	2r	1e]
1E	2B\	2B\	.
.	2G/	2c\	1r
2F\	2A/	1d	.
1G	1B	.	1r
.	.	2d\	.
=128	=128	=128	=128
1G	1E	2.e\	2r
.	.	.	1e
.	.	4d\	.
1A	1r	2c\	.
.	.	2c\	2f/
2G\	1r	[1B	1g
2F\	.	.	.
=129	=129	=129	=129
1E	0.r	2B\]	1g
.	.	1c	.
2F\	.	.	1a
2D\	.	2d\	.
2E\	.	2B\	2g/
2F\	.	2A/	2f/
=130	=130	=130	=130
1G	2r	2B\	2e/
.	2B\	2G/	2d/
1A	1c	1r	2f/
.	.	.	2.e/
1E	2B\	1r	.
.	.	.	4f/
.	2G/	.	2g/
=131	=131	=131	=131
2F\	2A/	2r	4c/
.	.	.	4d/
1E	2B\	1G	4e/
.	.	.	4f/
.	1E	.	2g/
2C/	.	2E/	1a
2D\	1B	2F/	.
2E\	.	2G/	2g#i/
=132	=132	=132	=132
1AA	1c	2E/	1a
.	.	1e	.
0E	1B	.	2.g/
.	.	4d\	.
.	.	4c\	4a/
.	[1G	1B	2b\
.	.	.	[2g/
=133	=133	=133	=133
1C	1G]	1.e	2g/]
.	.	.	2.cc\
0F	0A	.	.
.	.	.	4a/
.	.	4d\	2.dd\
.	.	4c\	.
.	.	1d	.
.	.	.	4cc\
.	.	.	4b\
.	.	.	4a/
=134	=134	=134	=134
2.E\	1B	2e\	0g
.	.	1B	.
4F\	.	.	.
2G\	1E	.	.
2G\	.	2c\	.
1G	1r	2d\	1r
.	.	2d\	.
=135	=135	=135	=135
1F	0.r	1d	0.r
1A	.	1c	.
[1G	.	1e	.
=136	=136	=136	=136
2G\]	1r	1.d	1r
2F\	.	.	.
2G\	1r	.	2.g/
2E\	.	2c\	.
.	.	.	4a/
1D	1d	2d\	4b\
.	.	.	4g/
.	.	2B\	[2dd\
=137	=137	=137	=137
1r	1e	1A	2dd\]
.	.	.	2cc\
1G	2d\	1r	1dd
.	2B\	.	.
2A\	2c\	2r	2cc\
[2G\	2d\	[2d\	[2b\
=138	=138	=138	=138
2G\]	1G	2d\]	2b\]
2E\	.	2e\	2.cc\
2F\	1A	2c\	.
.	.	.	4b\
2C/	.	2e\	1a
2D\	1B-	2d\	.
2E\	.	2B\	2g/
=139	=139	=139	=139
2AA/	1A	2c\	1.a
1D	.	2.A/	.
.	2F/	.	.
.	.	4G/	.
4C/	2G/	1G	2b\
4BB/	.	.	.
1AA	1A	.	1cc
.	.	2F#i/	.
=140	=140	=140	=140
1GG	0D	1G	1b
2r	.	2A/	2a/
2.GG/	.	2G/	2.b\
.	1r	1D	.
4AA/	.	.	4a/
2BB/	.	.	[2g/
=141	=141	=141	=141
2C/	1A	2E/	2g/]
2D\	.	1D	2f#i/
1GG	1B-i	.	1g
.	.	2G/	.
1r	1A	2F/	2a/
.	.	[2A/	[2cc\
=142	=142	=142	=142
1r	1.F	4A/]	4cc\]
.	.	4G/	4b\
.	.	4F/	1a
.	.	4E/	.
1r	.	2D/	.
.	2G/	1d	4g/
.	.	.	4f/
1AA	1A	.	1e
.	.	2c#i\	.
=143	=143	=143	=143
2BB/	1D	2d\	1d
2BB/	.	2D/	.
1AA	2r	2E/	1r
.	2A/	2F/	.
2r	1B-i	2.G/	1d
2GG/	.	.	.
.	.	4F/	.
=144	=144	=144	=144
2AA/	1A	2E/	2c/
2AA/	.	2C/	2e/
1BB	2F/	1D	1d
.	2G/	.	.
1AA	1A	1E	2c/
.	.	.	2cc\
=145	=145	=145	=145
2r	1D	1r	4b\
.	.	.	4a/
2GG/	.	.	4g/
.	.	.	4f/
2AA/	1r	2r	2e/
2AA/	.	2.e\	2c/
2BB/	1r	.	2d/
.	.	4d\	.
2BB/	.	[2d\	2d/
=146	=146	=146	=146
1AA	0.r	2d\]	2e/
.	.	2c#i\	2e/
2r	.	2d\	1d
2GG/	.	2g\	.
1AA	.	2f\	2r
.	.	[2e\	[2a/
=147	=147	=147	=147
1BB	1d	4e\]	2a/]
.	.	4d\	.
.	.	1d	2g/
1AA	1e	.	2.a/
.	.	2c#i\	.
.	.	.	4g/
2r	1d	1d	4f/
.	.	.	4e/
2D\	.	.	[2f/
=148	=148	=148	=148
1E	2B\	2r	4f/]
.	.	.	4e/
.	1c	2G/	1e
1F	.	1A	.
.	2d\	.	2d/
1E	2G/	1B	1e
.	2E/	.	.
=149	=149	=149	=149
2r	1F	1A	1r
2D\	.	.	.
2E\	2E/	2r	1g
2E\	1c	2G/	.
2F\	.	2A/	2f/
2F\	2d\	2A/	[2a/
=150	=150	=150	=150
1E	1.e	2B\	2a/]
.	.	2B\	2g/
2r	.	1A	2.a/
2D\	2A/	.	.
.	.	.	4b\
1E	1r	2r	2cc\
.	.	2G/	[2b\
=151	=151	=151	=151
1F	1r	1A	4b\]
.	.	.	4a/
.	.	.	1a
1E	1.e	1B	.
.	.	.	2g#i/
2r	.	1A	2.a/
2D\	2f\	.	.
.	.	.	4b\
=152	=152	=152	=152
2E\	1e	2r	4cc\
.	.	.	4b\
2E\	.	2G/	1cc
2F\	2c\	2A/	.
2F\	2d\	2A/	4b\
.	.	.	4a/
1E	[1e	2B\	1g
.	.	2B\	.
=153	=153	=153	=153
2r	2e\]	1A	2c/
2D\	2A/	.	2f/
2E\	1r	2G/	2e/
2F\	.	2A/	1a
1E	2r	1B	.
.	[2e\	.	2g#i/
=154	=154	=154	=154
[0.AAl	2e\]	2.A/	[0.al
.	2f\	.	.
.	.	4B\	.
.	2e\	2c\	.
.	2.c\	2A/	.
.	.	2.c\	.
.	4d\	.	.
.	2e\	.	.
.	.	4d\	.
=155	=155	=155	=155
*	*	*^	*
0.AA]	0.Al	0.El\	0.el/	0.a]
*	*	*v	*v	*
==	==	==	==
*-	*-	*-	*-
!!!RDF**kern: l=long note in original notation
!!!RDF**kern: i=editorial accidental
!!!RDF**kern: V=start of tuplet marker
!!!RDF**kern: Z=end of tuplet marker
!!!ENC:	Jesse Rodin; Chris Gage 10-25-2012
!!!END:	2012/11/12/
!!!EED:	Jesse Rodin
!!!EEV:	2012/12/15/
!!!ONB:	Translated from MusicXML and edited on 2012/12/15/ by Craig Sapp
!!muse2ps: T^@{OPR}^u^@{ONM}{. }@{OTL}^C^@{COM}^i2I150v85,85,85,150Q8c120
